!!!COM: Scriabin, Alexander
!!!OTL@@FR: Prélude en si bémol majeur
!!!OTL@@EN: Prelude in Bb Major
!!!OPR@@FR: 3 Préludes
!!!OPR@@EN: 3 Preludes
!!!OPS: 35
!!!ONM: 2
!!!ODT: 1903
!!!AGN: Prelude
**kern	**kern	**dynam
*staff2	*staff1	*staff1/2
*Ipiano	*Ipiano	*
*clefF4	*clefF4	*
*k[b-e-]	*k[b-e-]	*
*B-:	*B-:	*
*M4/4	*M4/4	*
*met(c)	*met(c)	*
=1	=1	=1
*	*^	*
2BBB- 2BB-	2D 2F	4rc	.
.	.	[4B-	.
2DD 2D	2F#X	8B-L]	.
.	.	8A	.
.	.	8G#X	.
.	.	8AJ	.
=2	=2	=2	=2
*	*	*^	*
1AAA 1AA	1Fn 1A	4.d	1ryy	.
.	.	8d-X	.	.
.	.	8f	.	.
.	.	4Bn	.	.
.	.	[8c	.	.
=3	=3	=3	=3	=3
1AAA-X 1AA-X	1F#X	2c]	4rc	.
.	.	.	[4e-	.
.	.	2c-X	8e-L]	.
.	.	.	8d	.
.	.	.	8c#X	.
.	.	.	8dJ	.
*	*clefG2	*	*	*
=4	=4	=4	=4	=4
*^	*	*	*	*
1GGG 1GG	4rc	4G\	1B-	4.fn	.
.	[4D	4r	.	.	.
.	.	.	.	8f-X	.
.	8D]	2r	.	8b-	.
.	4D	.	.	4f-	.
.	8E-	.	.	8e-	.
*	*	*	*v	*v	*
=5	=5	=5	=5	=5
1GGG-X 1GG-X	2.F-X	1B-	8raa	.
.	.	.	4e-	.
.	.	.	8d-X	.
.	.	.	8cL	.
.	.	.	8d-	.
.	8CL	.	8e-	.
.	8D-XJ	.	8f-XJ	.
=6	=6	=6	=6	=6
1CC-X 1GG-X	2Dn	1c-X	4fn	.
.	.	.	8b-L	.
.	.	.	8a-XJ	.
.	2E-	.	8a--L	.
.	.	.	8g-X	.
.	.	.	8e-	.
.	.	.	8c-J	.
*v	*v	*	*	*
=7	=7	=7	=7
1EE- 1C-X	1G-X	8c-XL	.
.	.	8B-J	.
.	.	2e-	.
.	.	4B-	.
=8	=8	=8	=8
1FF 1Cn	1F	2B-	.
.	.	2A	.
=9	=9	=9	=9
1CC-X 1GG-X	1E- 1B--	4raa	.
.	.	[4d-X	.
.	.	8d-L]	.
.	.	8c-XJ	.
.	.	8B-XL	.
.	.	8c-J	.
=10	=10	=10	=10
*^	*	*^	*
1FFF 1FF	4rc	4E-\	1A	4.dn	.
.	[4F	4r	.	.	.
.	.	.	.	8d-X	.
.	8FL]	2r	.	8a	.
.	8E-J	.	.	4Bn	.
.	8DnL	.	.	.	.
.	8E-J	.	.	8c	.
*	*	*	*v	*v	*
=11	=11	=11	=11	=11
1DD-X 1C-X	4.A--	2rc	4raa	.
.	.	.	[4e-	.
.	8G-X	.	.	.
.	8c-X	4c-X	8e-L]	.
.	4F-X	.	8d-XJ	.
.	.	4rc	8cnL	.
.	8Fn	.	8d-J	.
=12	=12	=12	=12	=12
1GGG 1GG	4rc	1Bn	4.en	.
.	[4G	.	.	.
.	.	.	8e-X	.
.	8GL]	.	8bn	.
.	8FJ	.	4d-X	.
.	8EnL	.	.	.
.	8FJ	.	8dn	.
=13	=13	=13	=13	=13
2DDD-X 2DD-X	2F	2c-X 2e-	8raa	.
.	.	.	4b-X	.
.	.	.	8a-X	.
2DD- 2D-X	4c-X	2f	8gL	.
.	.	.	8a-	.
.	8G-XL	.	8b-	.
.	8AJ	.	8cc-XJ	.
=14	=14	=14	=14	=14
1GG-X 1D-X	2An	1g-X	4ccn	.
.	.	.	8ffL	.
.	.	.	8ee-J	.
.	2B-	.	8ee--L	.
.	.	.	8dd-X	.
.	.	.	8b-	.
.	.	.	8g-J	.
*v	*v	*	*	*
=15	=15	=15	=15
1CC 1C 1B-	8fL	4raa	.
.	[8enJ	.	.
.	2.e]	2a	.
.	.	4g	.
=16	=16	=16	=16
1FF 1C 1A	2en	2g	.
.	2f	2f	.
=17	=17	=17	=17
*^	*	*	*
1FFF 1FF	4rc	8rc	8raa	.
.	.	[8d-	8d-X	.
.	[4G	2.d-]	8b-L	.
.	.	.	[8b--J	.
.	8G]	.	8b--]	.
.	4A-X	.	4a-X	.
.	8D-X	.	8f	.
*	*	*v	*v	*
=18	=18	=18	=18
*	*^	*	*
1FFF 1FF	2C	8rc	2e-	.
.	.	8C	.	.
.	.	8B-L	.	.
.	.	[8B--J	.	.
.	2D-X	8B--]	2d-X	.
.	.	4A-X	.	.
.	.	8F	.	.
*	*v	*v	*	*
=19	=19	=19	=19
*	*	*^	*
1FF	2E-	1A-X	6c	.
.	.	.	12c	.
.	.	.	12cL	.
.	.	.	12.Bn	.
.	.	.	24cJk	.
.	2D-X	.	4.f	.
.	.	.	8c	.
=20	=20	=20	=20	=20
1GG	6Dn	1G	2c	.
.	12E-	.	.	.
.	12DL	.	.	.
.	12.C#X	.	.	.
.	24DJk	.	.	.
.	4G	.	2Bn	.
.	4GG	.	.	.
=21	=21	=21	=21	=21
1EEE- 1EE-	4rc	8rc	8raa	.
.	.	[8c-	8c-X	.
.	[4F	2.c-]	8a-XL	.
.	.	.	[8a--J	.
.	8F]	.	8a--]	.
.	4G-X	.	4g-X	.
.	8C-X	.	8e-	.
*	*	*v	*v	*
=22	=22	=22	=22
*	*^	*	*
1EEE- 1EE-	2BB-	8rc	2d-X	.
.	.	8BB-	.	.
.	.	8A-XL	.	.
.	.	[8A--J	.	.
.	2C-X	8A--]	2c-X	.
.	.	4G-X	.	.
.	.	8E-	.	.
*	*v	*v	*	*
=23	=23	=23	=23
*	*	*^	*
1EE-	2D-X	1G-X	6B-	.
.	.	.	12B-	.
.	.	.	12B-L	.
.	.	.	12.An	.
.	.	.	24B-Jk	.
.	2C-X	.	4.e-	.
.	.	.	8B-	.
*	*	*v	*v	*
=24	=24	=24	=24
1FF	6Cn	1F 1A	.
.	12D-X	.	.
.	12CL	.	.
.	12.BBn	.	.
.	24CJk	.	.
.	4F	.	.
.	4FF	.	.
*v	*v	*	*
*	*clefF4	*
=25	=25	=25
*	*^	*
2BBB- 2BB-	2Dn 2F	4rc	.
.	.	[4B-	.
2DD 2D	2F#X	8B-L]	.
.	.	8A	.
.	.	8G#X	.
.	.	8AJ	.
=26	=26	=26	=26
*	*	*^	*
1AAA 1AA	1Fn 1A	4.d	1ryy	.
.	.	8d-X	.	.
.	.	8f	.	.
.	.	4Bn	.	.
.	.	[8c	.	.
=27	=27	=27	=27	=27
1AAA-X 1AA-X	1F#X	2c]	4rc	.
.	.	.	[4e-	.
.	.	2c-X	8e-L]	.
.	.	.	8d	.
.	.	.	8c#X	.
.	.	.	8dJ	.
*	*clefG2	*	*	*
=28	=28	=28	=28	=28
*^	*	*	*	*
1GGG 1GG	4rc	4G\	1B-	4.fn	.
.	[4D	4r	.	.	.
.	.	.	.	8f-X	.
.	8D]	2r	.	8b-	.
.	4D	.	.	4f-	.
.	8E-	.	.	8e-	.
*	*	*	*v	*v	*
=29	=29	=29	=29	=29
1GGG-X 1GG-X	2.F-X	1B-	8raa	.
.	.	.	4e-	.
.	.	.	8d-X	.
.	.	.	8cL	.
.	.	.	8d-	.
.	8CL	.	8e-	.
.	8D-XJ	.	8f-XJ	.
=30	=30	=30	=30	=30
1CC-X 1GG-X	2Dn	1c-X	4fn	.
.	.	.	8b-L	.
.	.	.	8a-XJ	.
.	2E-	.	8a--L	.
.	.	.	8g-X	.
.	.	.	8e-	.
.	.	.	8c-J	.
*v	*v	*	*	*
=31	=31	=31	=31
1FF 1E-	8B-L	4raa	.
.	[8AnJ	.	.
.	2.A]	2d	.
.	.	4c	.
=32	=32	=32	=32
2.BBB- 2.FF 2.D	2A	2c	.
.	2B-	2B-	.
4AAA-X 4AA-X	.	.	.
=33	=33	=33	=33
*^	*	*	*
1GGG-X 1GG-X	2.F-X	1B-	8raa	.
.	.	.	4e-	.
.	.	.	8d-X	.
.	.	.	8cL	.
.	.	.	8d-	.
.	8CL	.	8e-	.
.	8D-XJ	.	8f-XJ	.
=34	=34	=34	=34	=34
1CC-X 1GG-X	2Dn	1c-X	4fn	.
.	.	.	8b-L	.
.	.	.	8a-XJ	.
.	2E-	.	8a--L	.
.	.	.	8g-X	.
.	.	.	8e-	.
.	.	.	8c-J	.
*v	*v	*	*	*
=35	=35	=35	=35
1FF 1E-	8B-L	4raa	.
.	[8AnJ	.	.
.	2.A]	2d	.
.	.	4c	.
=36	=36	=36	=36
1BBB- 1FF 1D	2A	2c	.
.	2B-	2B-	.
*	*v	*v	*
==	==	==
*-	*-	*-
!!!system-decoration: {(*)}
!!!ENC: Bryan Jacob Bell
!!!END: November 2021 to April 2022
!!!PED: Konstantin Igumnov and Yakov Milstein
!!!PTL: A.N. Skryabin: Polnoe sobranie sochinenii dlia fortepiano (Muzgiz)
